X: 6
T: Allistrum's March
R: jig
M: 6/8
L: 1/8
K: Amix
Ecc edd | fdd cAG | Ecc edd | fdc A2G :|
|: FGE FDD | Ddc AGE | FGE FDD | Ddc A2G :|


Tune 2136	Setting 15520

